X: 1
T: The Peacock's Feathers
R: hornpipe
M: 4/4
L: 1/8
K: Dmaj
DE|FEFD A3B|dfed Bdef|g2fg efdB|AFFD E2EA|!
FEFD A3B|dfed Bdef|g2fg efdB|Adfe d2:|!
df|afge f2ec|dfed Bdef|g2fg efdB|AFFD E2EA|!
FEFD A3B|dfed Bdef|g2fg efdB|Adfe d2:|!


Tune 665	Setting 27709

